packages/assets/static/images/icons/dna.svg

<svg width="24" height="24" viewBox="0 0 24 24" xmlns="http://www.w3.org/2000/svg">
<path d="M18.75 19.1724V21.7505C18.75 21.9494 18.671 22.1402 18.5303 22.2808C18.3897 22.4215 18.1989 22.5005 18 22.5005C17.8011 22.5005 17.6103 22.4215 17.4697 22.2808C17.329 22.1402 17.25 21.9494 17.25 21.7505V19.1724C17.2537 18.0572 16.9449 16.9633 16.3586 16.0147C15.7724 15.0661 14.9321 14.3007 13.9331 13.8052L9.39561 11.5374C8.14689 10.918 7.09664 9.96126 6.36392 8.77552C5.6312 7.58977 5.2453 6.22248 5.24998 4.82861V2.25049C5.24998 2.05158 5.329 1.86081 5.46965 1.72016C5.6103 1.57951 5.80107 1.50049 5.99998 1.50049C6.19889 1.50049 6.38966 1.57951 6.53031 1.72016C6.67096 1.86081 6.74998 2.05158 6.74998 2.25049V4.82861C6.7463 5.94376 7.05508 7.03764 7.64133 7.98626C8.22757 8.93489 9.06782 9.70032 10.0669 10.1958L14.6044 12.4636C15.8531 13.0829 16.9033 14.0397 17.636 15.2255C18.3688 16.4112 18.7547 17.7785 18.75 19.1724ZM15 18.7505H6.76592C6.802 18.2396 6.90377 17.7354 7.06873 17.2505H13.8853C14.0842 17.2505 14.275 17.1715 14.4156 17.0308C14.5563 16.8902 14.6353 16.6994 14.6353 16.5005C14.6353 16.3016 14.5563 16.1108 14.4156 15.9702C14.275 15.8295 14.0842 15.7505 13.8853 15.7505H7.82436C8.20072 15.2064 8.66485 14.7287 9.19779 14.3367C9.27733 14.2784 9.3446 14.2051 9.39577 14.1208C9.44694 14.0365 9.481 13.9429 9.49602 13.8455C9.51103 13.748 9.50671 13.6485 9.48329 13.5528C9.45987 13.457 9.41781 13.3667 9.35951 13.2872C9.30122 13.2077 9.22783 13.1404 9.14354 13.0892C9.05924 13.0381 8.9657 13.004 8.86824 12.989C8.77078 12.974 8.67132 12.9783 8.57553 13.0017C8.47975 13.0251 8.38951 13.0672 8.30998 13.1255C7.36258 13.8239 6.59221 14.7348 6.06076 15.785C5.52932 16.8352 5.25162 17.9954 5.24998 19.1724V21.7505C5.24998 21.9494 5.329 22.1402 5.46965 22.2808C5.6103 22.4215 5.80107 22.5005 5.99998 22.5005C6.19889 22.5005 6.38966 22.4215 6.53031 22.2808C6.67096 22.1402 6.74998 21.9494 6.74998 21.7505V20.2505H15C15.1989 20.2505 15.3897 20.1715 15.5303 20.0308C15.671 19.8902 15.75 19.6994 15.75 19.5005C15.75 19.3016 15.671 19.1108 15.5303 18.9702C15.3897 18.8295 15.1989 18.7505 15 18.7505ZM18 1.50049C17.8011 1.50049 17.6103 1.57951 17.4697 1.72016C17.329 1.86081 17.25 2.05158 17.25 2.25049V3.75049H8.99998C8.80107 3.75049 8.6103 3.82951 8.46965 3.97016C8.329 4.11081 8.24998 4.30158 8.24998 4.50049C8.24998 4.6994 8.329 4.89017 8.46965 5.03082C8.6103 5.17147 8.80107 5.25049 8.99998 5.25049H17.234C17.198 5.76142 17.0962 6.26557 16.9312 6.75049H10.1147C9.91576 6.75049 9.72499 6.82951 9.58434 6.97016C9.44369 7.11081 9.36467 7.30158 9.36467 7.50049C9.36467 7.6994 9.44369 7.89017 9.58434 8.03082C9.72499 8.17147 9.91576 8.25049 10.1147 8.25049H16.1756C15.7992 8.79455 15.3351 9.2723 14.8022 9.66424C14.7228 9.72253 14.6556 9.7959 14.6046 9.88014C14.5535 9.96439 14.5195 10.0579 14.5046 10.1552C14.4897 10.2526 14.4941 10.352 14.5175 10.4476C14.541 10.5433 14.5831 10.6334 14.6414 10.7128C14.7591 10.8732 14.9357 10.9802 15.1324 11.0104C15.2298 11.0253 15.3291 11.0209 15.4248 10.9975C15.5205 10.974 15.6106 10.9319 15.69 10.8736C16.6371 10.1754 17.4073 9.26481 17.9388 8.21497C18.4702 7.16513 18.7481 6.0053 18.75 4.82861V2.25049C18.75 2.05158 18.671 1.86081 18.5303 1.72016C18.3897 1.57951 18.1989 1.50049 18 1.50049Z"/>
</svg>

<svg viewBox="0 0 24 24" xmlns="http://www.w3.org/2000/svg" aria-hidden="true" fill="currentColor"><path d="M18.75 19.172v2.578a.75.75 0 1 1-1.5 0v-2.578a5.97 5.97 0 0 0-3.317-5.367l-4.537-2.268A7.46 7.46 0 0 1 5.25 4.83V2.25a.75.75 0 0 1 1.5 0v2.58a5.97 5.97 0 0 0 3.317 5.367l4.537 2.268a7.46 7.46 0 0 1 4.146 6.708M15 18.75H6.766c.036-.51.138-1.015.303-1.5h6.816a.75.75 0 1 0 0-1.5h-6.06a6 6 0 0 1 1.373-1.413.75.75 0 1 0-.888-1.211 7.53 7.53 0 0 0-3.06 6.046v2.578a.75.75 0 1 0 1.5 0v-1.5H15a.75.75 0 1 0 0-1.5M18 1.5a.75.75 0 0 0-.75.75v1.5H9a.75.75 0 0 0 0 1.5h8.234a6 6 0 0 1-.303 1.5h-6.816a.75.75 0 1 0 0 1.5h6.06a6 6 0 0 1-1.373 1.414.75.75 0 1 0 .888 1.21 7.53 7.53 0 0 0 3.06-6.045V2.25A.75.75 0 0 0 18 1.5"/></svg>
